src/assets/duotone/DirectNotification.svg

<?xml version="1.0" encoding="UTF-8"?>
<svg width="24" height="24" viewBox="0 0 24 24" xmlns="http://www.w3.org/2000/svg">
 <path d="m19 8c1.6569 0 3-1.3432 3-3s-1.3431-3-3-3-3 1.3432-3 3 1.3431 3 3 3z"/>
 <path d="m20.34 12.72h-3.31c-0.93 0-1.76 0.52-2.18 1.34l-0.8 1.58c-0.19 0.38-0.57 0.61-0.99 0.61h-3.11c-0.29 0-0.72-0.06-0.99-0.62l-0.79-1.57c-0.42-0.83-1.25-1.35-2.18-1.35h-3.33c-0.36 0.01-0.66 0.31-0.66 0.67v3.09c0 3.47 2.07 5.53 5.53 5.53h7.96c3.26 0 5.27-1.79 5.51-4.96v-3.66c0-0.36-0.3-0.66-0.66-0.66z"/>
 <path d="m19 9.5c-2.48 0-4.5-2.02-4.5-4.5 0-0.72 0.19-1.39 0.49-2h-7.47c-3.45 0-5.52 2.06-5.52 5.52v7.95c0 3.47 2.07 5.53 5.52 5.53h7.95c3.46 0 5.52-2.06 5.52-5.52v-7.47c-0.6 0.3-1.27 0.49-1.99 0.49z" opacity=".4"/>
</svg>

<svg width="24" height="24" viewBox="0 0 24 24"  xmlns="http://www.w3.org/2000/svg">
<path d="M19 8C20.6569 8 22 6.65685 22 5C22 3.34315 20.6569 2 19 2C17.3431 2 16 3.34315 16 5C16 6.65685 17.3431 8 19 8Z" />
<path d="M20.34 12.72H17.03C16.1 12.72 15.27 13.24 14.85 14.06L14.05 15.64C13.86 16.02 13.48 16.25 13.06 16.25H9.95C9.66 16.25 9.23 16.19 8.96 15.63L8.17 14.06C7.75 13.23 6.92 12.71 5.99 12.71H2.66C2.3 12.72 2 13.02 2 13.38V16.47C2 19.94 4.07 22 7.53 22H15.49C18.75 22 20.76 20.21 21 17.04V13.38C21 13.02 20.7 12.72 20.34 12.72Z" />
<path opacity="0.4" d="M19 9.5C16.52 9.5 14.5 7.48 14.5 5C14.5 4.28 14.69 3.61 14.99 3H7.52C4.07 3 2 5.06 2 8.52V16.47C2 19.94 4.07 22 7.52 22H15.47C18.93 22 20.99 19.94 20.99 16.48V9.01C20.39 9.31 19.72 9.5 19 9.5Z" />
</svg>
